src/components/00-materials/images-raw/Injection.svg

<svg width="96" height="96" viewBox="0 0 96 96" fill="none" xmlns="http://www.w3.org/2000/svg">
<path d="M41.71 22.51H54.01M41.71 9.54H54.01H41.71ZM35.46 28.85C35.1362 28.8424 34.8277 28.7103 34.5987 28.4813C34.3696 28.2523 34.2376 27.9438 34.23 27.62V23.74C34.2376 23.4162 34.3696 23.1077 34.5987 22.8787C34.8277 22.6497 35.1362 22.5176 35.46 22.51H41.71V9.51H40.57C40.2737 9.51264 39.9798 9.45672 39.7051 9.34545C39.4305 9.23418 39.1805 9.06976 38.9696 8.86163C38.7587 8.65349 38.5909 8.40574 38.476 8.13261C38.3611 7.85947 38.3013 7.56632 38.3 7.27C38.3078 6.67037 38.5494 6.0975 38.9734 5.67346C39.3975 5.24943 39.9704 5.00777 40.57 5H55.14C55.4381 5 55.7333 5.05872 56.0087 5.17279C56.2841 5.28687 56.5343 5.45408 56.7451 5.66487C56.9559 5.87566 57.1231 6.1259 57.2372 6.40131C57.3513 6.67672 57.41 6.9719 57.41 7.27C57.41 7.5681 57.3513 7.86328 57.2372 8.13869C57.1231 8.4141 56.9559 8.66434 56.7451 8.87513C56.5343 9.08592 56.2841 9.25313 56.0087 9.36721C55.7333 9.48128 55.4381 9.54 55.14 9.54H54V22.54H60.53C60.8538 22.5476 61.1622 22.6797 61.3913 22.9087C61.6203 23.1377 61.7524 23.4462 61.76 23.77V27.65C61.7524 27.9738 61.6203 28.2823 61.3913 28.5113C61.1622 28.7403 60.8538 28.8724 60.53 28.88L35.46 28.85ZM58.17 28.85V60.25C58.1693 61.7256 57.6611 63.1561 56.7306 64.3014C55.8002 65.4467 54.5042 66.2371 53.06 66.54C51.4039 66.7705 49.7305 66.8508 48.06 66.78C46.2659 66.8145 44.4723 66.6907 42.7 66.41C41.2993 66.1099 40.0473 65.3303 39.16 64.2057C38.2727 63.0811 37.8059 61.6821 37.84 60.25V28.85H58.17Z" stroke="#00008F" stroke-width="2" stroke-linejoin="round"/>
<path d="M49.47 78.6401H46.49M37.83 54.0001H49.47C50.22 54.0001 50.79 54.5001 50.79 56.0001C50.79 57.5001 50.13 58.0001 49.47 58.0001H37.83V54.0001ZM37.83 45.0601H49.47C50.22 45.0601 50.79 45.5601 50.79 47.0601C50.79 48.5601 50.13 49.0601 49.47 49.0601H37.83V45.0601ZM37.83 36.0801H49.47C50.22 36.0801 50.79 36.5801 50.79 38.0801C50.79 39.5801 50.13 40.0801 49.47 40.0801H37.83V36.0801ZM42.8 66.5401L42.89 72.0001C42.8872 72.0875 42.9023 72.1746 42.9345 72.2559C42.9667 72.3372 43.0152 72.4111 43.0771 72.4729C43.1389 72.5348 43.2128 72.5833 43.2941 72.6155C43.3755 72.6477 43.4625 72.6629 43.55 72.6601H44.55V78.0001C44.5486 78.088 44.565 78.1753 44.5983 78.2566C44.6316 78.338 44.6811 78.4118 44.7437 78.4734C44.8064 78.5351 44.8809 78.5835 44.9627 78.6156C45.0446 78.6477 45.1321 78.6628 45.22 78.6601H46.45V89.8601C46.4424 90.0144 46.4678 90.1685 46.5244 90.3122C46.5809 90.4559 46.6674 90.586 46.778 90.6938C46.8886 90.8016 47.0209 90.8846 47.166 90.9374C47.3112 90.9902 47.4659 91.0116 47.62 91.0001H48.34C48.4907 91.0058 48.6411 90.9801 48.7814 90.9247C48.9217 90.8693 49.0491 90.7854 49.1553 90.6782C49.2615 90.571 49.3443 90.443 49.3985 90.3022C49.4526 90.1613 49.477 90.0108 49.47 89.8601V78.6401H50.7C50.8753 78.6397 51.0436 78.5716 51.17 78.4501C51.2874 78.3211 51.3548 78.1544 51.36 77.9801V72.6801H52.36C52.4471 72.6788 52.533 72.6601 52.6127 72.625C52.6924 72.5898 52.7643 72.5391 52.824 72.4756C52.8837 72.4122 52.93 72.3374 52.9603 72.2557C52.9905 72.174 53.004 72.0871 53 72.0001V66.5601L42.8 66.5401ZM51.36 72.6801H44.59H51.36Z" stroke="#00008F" stroke-width="2" stroke-linejoin="round"/>
</svg>

<svg width="96" height="96" viewBox="0 0 96 96" fill="none" xmlns="http://www.w3.org/2000/svg"><path d="M41.71 22.51h12.3M41.71 9.54h12.3-12.3zm-6.25 19.31a1.26 1.26 0 01-1.23-1.23v-3.88a1.26 1.26 0 011.23-1.23h6.25v-13h-1.14a2.25 2.25 0 01-2.27-2.24A2.3 2.3 0 0140.57 5h14.57a2.27 2.27 0 010 4.54H54v13h6.53a1.26 1.26 0 011.23 1.23v3.88a1.26 1.26 0 01-1.23 1.23l-25.07-.03zm22.71 0v31.4a6.43 6.43 0 01-5.11 6.29c-1.656.23-3.33.31-5 .24a30.514 30.514 0 01-5.36-.37 6.15 6.15 0 01-4.86-6.16v-31.4h20.33z" stroke="#00008F" stroke-width="2" stroke-linejoin="round"/><path d="M49.47 78.64h-2.98M37.83 54h11.64c.75 0 1.32.5 1.32 2s-.66 2-1.32 2H37.83v-4zm0-8.94h11.64c.75 0 1.32.5 1.32 2s-.66 2-1.32 2H37.83v-4zm0-8.98h11.64c.75 0 1.32.5 1.32 2s-.66 2-1.32 2H37.83v-4zm4.97 30.46l.09 5.46a.64.64 0 00.66.66h1V78a.65.65 0 00.67.66h1.23v11.2A1.088 1.088 0 0047.62 91h.72a1.09 1.09 0 001.13-1.14V78.64h1.23a.68.68 0 00.47-.19.73.73 0 00.19-.47v-5.3h1A.65.65 0 0053 72v-5.44l-10.2-.02zm8.56 6.14h-6.77 6.77z" stroke="#00008F" stroke-width="2" stroke-linejoin="round"/></svg>
